X: 11761
T: Eli To Floyd
R: reel
M: 4/4
K: Amixolydian
|:A3 c eAce|Acec dBGB|
A3 c eAce|feee eAcB|
A3 c eAce|Acec dBGB|
A2 BA GABd|1 ecdB A2 a2:|2 ecdB A2 BA||
|:G3 B A2 BA|GGGB A2 BA|
Bddd edBd|eeef edBA|
A2 B G2 B A2-|-A B GB ABdB|
eeef gedB|1 BAGB A2 BA:|2 BAGB A2 a2||

